Origami/64x64/apps/cutemarked.svg

<svg width="64" height="64" version="1" xmlns="http://www.w3.org/2000/svg">
 <path d="m10 56v2c0 1.662 1.338 3 3 3h38c1.662 0 3-1.338 3-3v-2c0 1.662-1.338 3-3 3h-38c-1.662 0-3-1.338-3-3z" style="opacity:.2"/>
 <path d="m54 57v-50c0-1.662-1.338-3-3-3h-38c-1.662 0-3 1.338-3 3v50c0 1.662 1.338 3 3 3h38c1.662 0 3-1.338 3-3z" style="fill:#cccccc"/>
 <path d="m13 4c-1.662 0-3 1.338-3 3v1c0-1.662 1.338-3 3-3h38c1.662 0 3 1.338 3 3v-1c0-1.662-1.338-3-3-3h-38z" style="fill:#ffffff;opacity:.1"/>
 <path d="M 63.958,45.848 A 16,16 0 0 1 48,61 16,16 0 0 1 32.042,46.152 16,16 0 0 0 32,47 16,16 0 0 0 48,63 16,16 0 0 0 64,47 16,16 0 0 0 63.95704,45.84766 Z" style="fill-rule:evenodd;opacity:.2"/>
 <path d="m19.5 22c-1.375 0-2.5 1.25-2.5 2.5v15c0 1.25 1.125 2.5 2.5 2.5h25c1.375 0 2.5-1.25 2.5-2.5v-15c0-1.25-1.125-2.5-2.5-2.5zm0.5 3h24v14h-24zm2 2v10h3v-5.599609l2.5 2.5 2.5-2.5v5.599609h3v-10h-3l-2.5 2.5-2.5-2.5zm15 0v6h-2l2.5 4h2l2.5-4h-2v-6z" style="opacity:.5"/>
 <g transform="matrix(2,0,0,2,6,0)">
  <circle cx="21" cy="23" r="8" style="fill-rule:evenodd;fill:#ff8c50"/>
 </g>
 <path d="m40 50.436v3.564h3.5638l9.0008-9.0008-3.5638-3.5638zm15.7172-8.5782c0.37696-0.37694 0.37696-0.9709 0-1.34786l-2.2274-2.2274c-0.37696-0.37696-0.97092-0.37696-1.34786 0l-1.862 1.874 3.564 3.564z" style="fill:#ffffff"/>
</svg>

<svg xmlns="http://www.w3.org/2000/svg" width="64" height="64" version="1">
 <path style="opacity:0.2" d="m 10,56 0,2 c 0,1.662 1.338,3 3,3 l 38,0 c 1.662,0 3,-1.338 3,-3 l 0,-2 c 0,1.662 -1.338,3 -3,3 l -38,0 c -1.662,0 -3,-1.338 -3,-3 z"/>
 <path style="fill:#cccccc" d="M 54,57 54,7 C 54,5.338 52.662,4 51,4 L 13,4 c -1.662,0 -3,1.338 -3,3 l 0,50 c 0,1.662 1.338,3 3,3 l 38,0 c 1.662,0 3,-1.338 3,-3 z"/>
 <path style="opacity:0.1;fill:#ffffff" d="M 13 4 C 11.338 4 10 5.338 10 7 L 10 8 C 10 6.338 11.338 5 13 5 L 51 5 C 52.662 5 54 6.338 54 8 L 54 7 C 54 5.338 52.662 4 51 4 L 13 4 z"/>
 <path style="opacity:0.2;fill-rule:evenodd" d="M 63.958,45.848 A 16,16 0 0 1 48,61 16,16 0 0 1 32.042,46.152 16,16 0 0 0 32,47 16,16 0 0 0 48,63 16,16 0 0 0 64,47 16,16 0 0 0 63.95704,45.84766 Z"/>
 <path style="opacity:0.5" d="M 19.5,22 C 18.125,22 17,23.25 17,24.5 l 0,15 c 0,1.25 1.125,2.5 2.5,2.5 l 25,0 c 1.375,0 2.5,-1.25 2.5,-2.5 l 0,-15 C 47,23.25 45.875,22 44.5,22 Z m 0.5,3 24,0 0,14 -24,0 z m 2,2 0,10 3,0 0,-5.599609 2.5,2.5 2.5,-2.5 L 30,37 33,37 33,27 30,27 27.5,29.5 25,27 Z m 15,0 0,6 -2,0 2.5,4 2,0 2.5,-4 -2,0 0,-6 z"/>
 <g transform="matrix(2,0,0,2,6,0)">
  <circle style="fill:#ff8c50;fill-rule:evenodd" cx="21" cy="23" r="8"/>
 </g>
 <path style="fill:#ffffff" d="m 40,50.436 0,3.564 3.5638,0 9.0008,-9.0008 -3.5638,-3.5638 z m 15.7172,-8.5782 c 0.37696,-0.37694 0.37696,-0.9709 0,-1.34786 l -2.2274,-2.2274 c -0.37696,-0.37696 -0.97092,-0.37696 -1.34786,0 l -1.862,1.874 3.564,3.564 z"/>
</svg>
